X: 3216
T: RATTLIN' ROARIN' WILLIE
%R: slip-jig
B: James Kerr "Merry Melodies" v.3 p.25 #216
Z: 2016 John Chambers <jc:trillian.mit.edu>
M: 9/8
L: 1/8
K: A
uf |\
ecA ABA cef | =gfg B=GB d2f |\
ecA ABA cde | aga bag a2 ::\
ue |\
aga ecA cef | =gfg B=GB ud2uf |\
ecA ABA cde | aga bag a2 :|

%%sep 1 1 500
%%sep 1 1 500

